X: 2
T: John O'Dwyer Of The Glen
Z: ceolachan
S: https://thesession.org/tunes/8284#setting19435
R: waltz
M: 3/4
L: 1/8
K: Bmix
~ | G4 FG | A4 A2 | A6- | A4 :|[2 A6 ||A4 eA | e4 d2 | e2 f4- | f4 g2 | ~~ | B,4 B,2 | B,6- | B,4 BA |[2 B,6 ||B,4 DB, | D4 E2 | F2 G4- | G4 A2 | ~
